X:3076
T: Tordyveln
C: Timas Hans
S: Utlärd av Jonas Hjalmarsson
Z: Karin Arén
M: 3/4
L: 1/8
K: Dm
v(F/G/)F/E/ u(AF) D>F | v(F/E/)F/A/ d2 v(A2 | A/B/)A/G/ ED/E/ G>u(E | F)>v(D ^C)C CE | 
v(D/^C/)=B,/A,/ A,2 [F2A2-] | A^c/A/ FG/F/ (D/B,/)(G/E/) |1 v(D/A,/)F/D/ u^C4 :|2 v(D/A,/)F/D/ ^C2- CE ||
|: v(D/^C/)=B,/A,/ A,2 A>F | v(A=B) ^c3 vA- | A>^c de/d/ u(^cA) | v(A/=B/)^c/A/ E3 vA- | 
[AF]>u[F(A] F)v(A F)A | v(A/G/)A/=B/ ^cd/c/ A>E | (A/G/)A/^c/ df/d/ ^cA |  
v(A/=B/)^c/A/ E2 D>^C | v(D/A,/)u(F/D/ ^C)=B,/A,/ A,>A | v(A/=B/)^c/A/ [A3F3]z :| 
(:musicend:)
(:music:)
